frontend/public/images/logos/logo-trase-small-beta.svg

<svg xmlns="http://www.w3.org/2000/svg" width="71" height="32" viewBox="0 0 71 32">
  <defs>
    <linearGradient id="a" x1="0%" x2="97.04%" y1="50%" y2="50%">
      <stop stop-color="#EB6A6A" offset="0%"/>
      <stop stop-color="#EB6A6A" stop-opacity="0" offset="100%"/>
    </linearGradient>
    <linearGradient id="b" x1="0%" y1="50%" y2="50%">
      <stop stop-color="#EB6A6A" stop-opacity="0" offset="0%"/>
      <stop stop-color="#EB696A" offset="100%"/>
    </linearGradient>
  </defs>
  <g fill="none" fill-rule="evenodd">
    <g transform="translate(0 .563)">
      <path fill="url(#a)" d="M2.96831585,10.0731448 L0.163387415,10.0731448 L0.163387415,16.261731 L2.96831585,16.261731 C6.80025089,16.261731 10.5514926,14.3031747 14.8949302,12.0363517 C20.0059553,9.36758621 25.7998731,6.34338391 32.5014247,6.34338391 C39.2036431,6.34338391 44.9962271,9.36758621 50.1079191,12.0363517 C50.273974,12.1227195 50.4380283,12.208423 50.6020827,12.2934621 C53.2096124,10.9348299 55.6097402,9.71505057 57.950515,8.99686897 C56.4440163,8.35508966 54.7781316,7.48609655 52.9922071,6.55332414 C47.5303993,3.70185747 40.7328159,0.154133333 32.5014247,0.154133333 C24.2700334,0.154133333 17.4724501,3.70185747 12.0106422,6.55332414 C8.39477868,8.44212184 5.27107806,10.0731448 2.96831585,10.0731448 Z"/>
      <path fill="url(#b)" d="M62.0345335,10.0731448 C58.2025984,10.0731448 54.4513568,12.0310368 50.1079191,14.2985241 C44.9962271,16.9672897 39.2036431,19.991492 32.5014247,19.991492 C25.7998731,19.991492 20.0059553,16.9672897 14.8949302,14.2985241 C14.7282084,14.2121563 14.564821,14.1264529 14.4007667,14.0407494 C11.7932369,15.400046 9.39310912,16.6198253 7.05233433,17.3380069 C8.55883298,17.9791218 10.2247177,18.8481149 12.0106422,19.7808874 C17.4724501,22.632354 24.2700334,26.1807425 32.5014247,26.1807425 C40.7328159,26.1807425 47.5303993,22.632354 52.9922071,19.7808874 C56.6080706,17.892754 59.7317713,16.261731 62.0345335,16.261731 L64.8394619,16.261731 L64.8394619,10.0731448 L62.0345335,10.0731448 L62.0345335,10.0731448 Z"/>
    </g>
    <path fill="#34444C" d="M52.12,25.79 C52.3466667,25.79 52.54,25.8666667 52.7,26.02 C52.86,26.1733333 52.94,26.3566667 52.94,26.57 L52.94,27.15 C52.94,27.37 52.86,27.5566667 52.7,27.71 C52.54,27.8633333 52.3466667,27.94 52.12,27.94 L51.11,27.94 L51.11,25.79 L52.12,25.79 Z M51.11,28.7 L52.07,28.7 C52.3633333,28.7 52.5883333,28.8 52.745,29 C52.9016667,29.2 52.98,29.4 52.98,29.6 L52.98,30.32 C52.98,30.56 52.8933333,30.7683333 52.72,30.945 C52.5466667,31.1216667 52.33,31.21 52.07,31.21 L51.11,31.21 L51.11,28.7 Z M50.5,25 C50.4266667,25 50.37,25.02 50.33,25.06 C50.29,25.1 50.27,25.1466667 50.27,25.2 L50.27,31.8 C50.27,31.8533333 50.29,31.9 50.33,31.94 C50.37,31.98 50.4266667,32 50.5,32 L52.07,32 C52.5433333,32 52.9533333,31.84 53.3,31.52 C53.6466667,31.2 53.82,30.8 53.82,30.32 L53.82,29.6 C53.82,29.08 53.6066667,28.6466667 53.18,28.3 C53.56,27.9533333 53.75,27.5566667 53.75,27.11 L53.75,26.56 C53.75,26.1266667 53.5933333,25.7583333 53.28,25.455 C52.9666667,25.1516667 52.5733333,25 52.1,25 L50.5,25 Z M59.05,32 C59.1033333,32 59.15,31.98 59.19,31.94 C59.23,31.9 59.25,31.8433333 59.25,31.77 L59.25,31.44 C59.25,31.3666667 59.23,31.31 59.19,31.27 C59.15,31.23 59.1033333,31.21 59.05,31.21 L56.59,31.21 L56.59,28.7 L58.73,28.7 C58.7833333,28.7 58.83,28.68 58.87,28.64 C58.91,28.6 58.93,28.5433333 58.93,28.47 L58.93,28.15 C58.93,28.0766667 58.91,28.02 58.87,27.98 C58.83,27.94 58.7833333,27.92 58.73,27.92 L56.59,27.92 L56.59,25.79 L58.97,25.79 C59.0233333,25.79 59.07,25.77 59.11,25.73 C59.15,25.69 59.17,25.6333333 59.17,25.56 L59.17,25.23 C59.17,25.1566667 59.15,25.1 59.11,25.06 C59.07,25.02 59.0233333,25 58.97,25 L55.98,25 C55.9066667,25 55.85,25.02 55.81,25.06 C55.77,25.1 55.75,25.1466667 55.75,25.2 L55.75,31.8 C55.75,31.8533333 55.77,31.9 55.81,31.94 C55.85,31.98 55.9066667,32 55.98,32 L59.05,32 Z M63.42,25.79 L64.73,25.79 C64.7833333,25.79 64.83,25.77 64.87,25.73 C64.91,25.69 64.93,25.6333333 64.93,25.56 L64.93,25.23 C64.93,25.1566667 64.91,25.1 64.87,25.06 C64.83,25.02 64.7833333,25 64.73,25 L61.27,25 C61.2166667,25 61.17,25.02 61.13,25.06 C61.09,25.1 61.07,25.1566667 61.07,25.23 L61.07,25.56 C61.07,25.6333333 61.09,25.69 61.13,25.73 C61.17,25.77 61.2166667,25.79 61.27,25.79 L62.58,25.79 L62.58,31.8 C62.58,31.8533333 62.6,31.9 62.64,31.94 C62.68,31.98 62.7366667,32 62.81,32 L63.19,32 C63.2633333,32 63.32,31.98 63.36,31.94 C63.4,31.9 63.42,31.8533333 63.42,31.8 L63.42,25.79 Z M69.55,28.99 L67.45,28.99 L68.4,25.79 L68.59,25.79 L69.55,28.99 Z M69.27,25.2 C69.23,25.0666667 69.15,25 69.03,25 L67.96,25 C67.84,25 67.76,25.0666667 67.72,25.2 L66.63,28.81 C66.59,28.9366667 66.57,29.06 66.57,29.18 L66.57,31.8 C66.57,31.8533333 66.59,31.9 66.63,31.94 C66.67,31.98 66.7266667,32 66.8,32 L67.18,32 C67.2533333,32 67.31,31.98 67.35,31.94 C67.39,31.9 67.41,31.8533333 67.41,31.8 L67.41,29.77 L69.58,29.77 L69.58,31.8 C69.58,31.8533333 69.6,31.9 69.64,31.94 C69.68,31.98 69.7366667,32 69.81,32 L70.19,32 C70.2633333,32 70.32,31.98 70.36,31.94 C70.4,31.9 70.42,31.8533333 70.42,31.8 L70.42,29.18 C70.42,29.06 70.4,28.94 70.36,28.82 L69.27,25.2 Z" opacity=".6"/>
  </g>
</svg>

<svg xmlns="http://www.w3.org/2000/svg" width="71" height="32"><defs><linearGradient id="a" x1="0%" x2="97.04%" y1="50%" y2="50%"><stop stop-color="#EB6A6A" offset="0%"/><stop stop-color="#EB6A6A" stop-opacity="0" offset="100%"/></linearGradient><linearGradient id="b" x1="0%" y1="50%" y2="50%"><stop stop-color="#EB6A6A" stop-opacity="0" offset="0%"/><stop stop-color="#EB696A" offset="100%"/></linearGradient></defs><g fill="none" fill-rule="evenodd"><path fill="url(#a)" d="M2.968 10.073H.163v6.189h2.805c3.832 0 7.583-1.959 11.927-4.226C20.006 9.368 25.8 6.343 32.5 6.343c6.703 0 12.495 3.025 17.607 5.693l.494.257c2.608-1.358 5.008-2.578 7.349-3.296-1.507-.642-3.173-1.51-4.959-2.444C47.53 3.702 40.732.154 32.502.154c-8.232 0-15.03 3.548-20.491 6.4-3.616 1.888-6.74 3.52-9.043 3.52z" transform="translate(0 .563)"/><path fill="url(#b)" d="M62.035 10.073c-3.832 0-7.584 1.958-11.927 4.226-5.112 2.668-10.904 5.692-17.607 5.692-6.701 0-12.495-3.024-17.606-5.692l-.494-.258c-2.608 1.359-5.008 2.579-7.349 3.297 1.507.641 3.173 1.51 4.959 2.443 5.461 2.851 12.259 6.4 20.49 6.4 8.232 0 15.03-3.549 20.491-6.4 3.616-1.888 6.74-3.52 9.043-3.52h2.804v-6.188h-2.804z" transform="translate(0 .563)"/><path fill="#34444C" d="M52.12 25.79c.227 0 .42.077.58.23.16.153.24.337.24.55v.58c0 .22-.08.407-.24.56a.808.808 0 0 1-.58.23h-1.01v-2.15h1.01zm-1.01 2.91h.96c.293 0 .518.1.675.3.157.2.235.4.235.6v.72c0 .24-.087.448-.26.625a.873.873 0 0 1-.65.265h-.96V28.7zM50.5 25c-.073 0-.13.02-.17.06a.192.192 0 0 0-.06.14v6.6c0 .053.02.1.06.14.04.04.097.06.17.06h1.57c.473 0 .883-.16 1.23-.48.347-.32.52-.72.52-1.2v-.72c0-.52-.213-.953-.64-1.3.38-.347.57-.743.57-1.19v-.55a1.48 1.48 0 0 0-.47-1.105c-.313-.303-.707-.455-1.18-.455h-1.6zm8.55 7c.053 0 .1-.02.14-.06.04-.04.06-.097.06-.17v-.33c0-.073-.02-.13-.06-.17a.192.192 0 0 0-.14-.06h-2.46V28.7h2.14c.053 0 .1-.02.14-.06.04-.04.06-.097.06-.17v-.32c0-.073-.02-.13-.06-.17a.192.192 0 0 0-.14-.06h-2.14v-2.13h2.38c.053 0 .1-.02.14-.06.04-.04.06-.097.06-.17v-.33c0-.073-.02-.13-.06-.17a.192.192 0 0 0-.14-.06h-2.99c-.073 0-.13.02-.17.06a.192.192 0 0 0-.06.14v6.6c0 .053.02.1.06.14.04.04.097.06.17.06h3.07zm4.37-6.21h1.31c.053 0 .1-.02.14-.06.04-.04.06-.097.06-.17v-.33c0-.073-.02-.13-.06-.17a.192.192 0 0 0-.14-.06h-3.46c-.053 0-.1.02-.14.06-.04.04-.06.097-.06.17v.33c0 .073.02.13.06.17.04.04.087.06.14.06h1.31v6.01c0 .053.02.1.06.14.04.04.097.06.17.06h.38c.073 0 .13-.02.17-.06.04-.04.06-.087.06-.14v-6.01zm6.13 3.2h-2.1l.95-3.2h.19l.96 3.2zm-.28-3.79c-.04-.133-.12-.2-.24-.2h-1.07c-.12 0-.2.067-.24.2l-1.09 3.61c-.04.127-.06.25-.06.37v2.62c0 .053.02.1.06.14.04.04.097.06.17.06h.38c.073 0 .13-.02.17-.06.04-.04.06-.087.06-.14v-2.03h2.17v2.03c0 .053.02.1.06.14.04.04.097.06.17.06h.38c.073 0 .13-.02.17-.06.04-.04.06-.087.06-.14v-2.62c0-.12-.02-.24-.06-.36l-1.09-3.62z" opacity=".6"/></g></svg>
